assets/platform_icons/desktop_platform_icon.svg

<svg width="44" height="45" viewBox="0 0 44 45" fill="none" xmlns="http://www.w3.org/2000/svg">
<path d="M43.6078 24.5376C46.2157 13.9554 35.3302 3.25214 25.427 1.37113C19.9813 0.338307 14.3174 1.3192 9.67598 4.35997C5.68941 6.968 1.61092 11.6013 1.10542 16.5058C1.09393 16.6154 1.12841 16.702 1.17437 16.777C-1.96779 24.8722 1.45583 35.0505 8.34329 40.1915C15.1733 45.2864 26.4035 47.0693 33.6643 41.7494C34.279 41.2994 33.7677 40.405 33.0669 40.7339C32.8027 40.8551 32.5384 40.9762 32.2799 41.0974C32.1478 40.8666 31.8721 40.7166 31.5274 40.8839C26.6907 43.1861 19.9756 42.0206 15.1963 40.3127C14.6563 40.1223 14.2887 40.982 14.8057 41.2359C17.3504 42.4764 20.1192 43.2034 22.9569 43.3535C24.1402 43.4169 25.3293 43.3765 26.5126 43.2496C24.7089 43.7054 22.8477 43.9132 20.843 43.7343C16.7702 43.365 13.1743 41.8417 9.8081 39.5799C5.86174 36.9315 3.16765 33.7061 1.89241 29.0901C0.783752 25.0915 0.726294 20.8794 1.94984 16.9212C2.00154 16.8808 2.05324 16.8347 2.08196 16.7712C2.2945 16.3673 2.5013 15.9692 2.70809 15.5768C1.49604 18.7099 1.13989 22.1834 1.6856 25.4954C2.71384 31.7789 6.24086 35.9275 11.428 39.3376C12.0484 39.7472 12.6745 38.6971 12.0139 38.3451C7.40697 35.8929 3.75356 30.3133 2.97808 25.2127C2.12217 19.5812 4.16141 14.2959 7.49887 9.81261C7.78608 9.43179 7.18293 9.01057 6.8555 9.31638C6.30979 9.82991 5.8043 10.3838 5.33326 10.9666C6.09726 9.81261 6.95315 8.72785 7.98139 7.7181C7.74587 8.11623 8.125 8.71632 8.59604 8.41051C9.80809 7.63156 10.9799 6.80069 12.2379 6.08521C13.1341 5.57745 14.0876 5.17354 15.0067 4.70618C15.1561 4.75234 15.3284 4.76388 15.5295 4.71195C22.2044 3.00981 28.8506 3.7426 34.0492 8.6413C34.2502 8.83171 34.4972 8.74517 34.6236 8.57207C34.5777 8.8144 34.7098 9.10289 35.0315 9.10289C35.5944 9.10289 35.5944 8.23162 35.0315 8.23162C34.8706 8.23162 34.7615 8.30087 34.6926 8.40473C34.704 8.30664 34.6811 8.20279 34.5892 8.1047C32.8544 6.26408 30.6658 4.72925 28.2589 3.65604C35.29 6.24099 41.1377 12.5649 41.9821 19.8639C41.4594 17.5328 40.4886 15.2768 39.0697 13.24C38.7079 12.7264 37.9094 13.1707 38.2138 13.7362C40.1037 17.2097 40.9941 21.0064 41.1205 24.9415C41.2526 29.0497 39.6614 32.5578 37.4843 35.9448C37.2603 36.291 37.7773 36.7122 38.0587 36.4237C38.1909 36.493 38.3517 36.493 38.4896 36.366C41.6317 33.4233 43.9294 29.0151 43.6193 24.6011C43.6193 24.578 43.6078 24.5607 43.6078 24.5376Z" fill="black"/>
<path d="M30.666 13.1719H13.3327C12.1361 13.1719 11.166 14.1377 11.166 15.3292V26.1158C11.166 27.3073 12.1361 28.2732 13.3327 28.2732H30.666C31.8626 28.2732 32.8327 27.3073 32.8327 26.1158V15.3292C32.8327 14.1377 31.8626 13.1719 30.666 13.1719Z" fill="black"/>
<path d="M17.666 32.5879H26.3327" stroke="black" stroke-width="1.83333" stroke-linecap="round" stroke-linejoin="round"/>
<path d="M22 28.2715V32.5861" stroke="black" stroke-width="1.83333" stroke-linecap="round" stroke-linejoin="round"/>
</svg>

<svg xmlns="http://www.w3.org/2000/svg" fill="none" viewBox="0 0 44 45"><path fill="#000" d="M43.6 24.5C46.2 14 35.3 3.3 25.4 1.4c-5.4-1-11 0-15.7 3-4 2.6-8 7.2-8.6 12.1v.3a21 21 0 0 0 7.2 23.4c6.9 5 18.1 6.9 25.4 1.5a.6.6 0 0 0-.6-1l-.8.4c-.2-.2-.4-.4-.8-.2-4.8 2.3-11.5 1.1-16.3-.6-.5-.2-1 .7-.4 1a21.2 21.2 0 0 0 11.7 2c-1.8.4-3.7.6-5.7.4-4-.3-7.6-1.9-11-4.1a18 18 0 0 1-8-10.5 21.6 21.6 0 0 1 .3-12.3l.6-1.2a19 19 0 0 0-1 9.9c1 6.3 4.5 10.4 9.7 13.8.6.4 1.3-.6.6-1a19 19 0 0 1-9-13c-.9-5.7 1.2-11 4.5-15.5.3-.4-.3-.8-.6-.5-.6.5-1.1 1-1.6 1.7C6.1 9.8 7 8.7 8 7.7c-.3.4.1 1 .6.7l3.6-2.3L15 4.7h.5C22.2 3 29 3.7 34 8.7c.3.1.5 0 .6-.1 0 .2.1.5.4.5.6 0 .6-.9 0-.9l-.3.2-.1-.3c-1.7-1.8-4-3.4-6.3-4.4 7 2.5 12.8 8.9 13.7 16.2-.5-2.4-1.5-4.6-3-6.7-.3-.5-1 0-.8.5a26 26 0 0 1 3 11.2 19 19 0 0 1-3.7 11c-.2.4.3.8.6.5h.4c3.1-3 5.4-7.4 5.1-11.8Z"/><path fill="#000" d="M30.7 13.2H13.3c-1.2 0-2.1 1-2.1 2.1v10.8c0 1.2 1 2.2 2.1 2.2h17.4c1.2 0 2.1-1 2.1-2.2V15.3c0-1.2-1-2.1-2.1-2.1Z"/><path stroke="#000" stroke-linecap="round" stroke-linejoin="round" stroke-width="1.8" d="M17.7 32.6h8.6M22 28.3v4.3"/></svg>
